src/front_assets/svg/videos.svg

<!DOCTYPE svg PUBLIC "-//W3C//DTD SVG 1.1//EN" "http://www.w3.org/Graphics/SVG/1.1/DTD/svg11.dtd">
<!-- Uploaded to: SVG Repo, www.svgrepo.com, Transformed by: SVG Repo Mixer Tools -->
<svg width="800px" height="800px" viewBox="0 0 24 24" fill="none" xmlns="http://www.w3.org/2000/svg">
<g id="SVGRepo_bgCarrier" stroke-width="0"/>
<g id="SVGRepo_tracerCarrier" stroke-linecap="round" stroke-linejoin="round"/>
<g id="SVGRepo_iconCarrier"> <path d="M19.5617 7C19.7904 5.69523 18.7863 4.5 17.4617 4.5H6.53788C5.21323 4.5 4.20922 5.69523 4.43784 7" stroke="#1C274C" stroke-width="1.5"/> <path d="M17.4999 4.5C17.5283 4.24092 17.5425 4.11135 17.5427 4.00435C17.545 2.98072 16.7739 2.12064 15.7561 2.01142C15.6497 2 15.5194 2 15.2588 2H8.74099C8.48035 2 8.35002 2 8.24362 2.01142C7.22584 2.12064 6.45481 2.98072 6.45704 4.00434C6.45727 4.11135 6.47146 4.2409 6.49983 4.5" stroke="#1C274C" stroke-width="1.5"/> <path d="M21.1935 16.793C20.8437 19.2739 20.6689 20.5143 19.7717 21.2572C18.8745 22 17.5512 22 14.9046 22H9.09536C6.44881 22 5.12553 22 4.22834 21.2572C3.33115 20.5143 3.15626 19.2739 2.80648 16.793L2.38351 13.793C1.93748 10.6294 1.71447 9.04765 2.66232 8.02383C3.61017 7 5.29758 7 8.67239 7H15.3276C18.7024 7 20.3898 7 21.3377 8.02383C22.0865 8.83268 22.1045 9.98979 21.8592 12" stroke="#1C274C" stroke-width="1.5" stroke-linecap="round"/> <path d="M14.5812 13.6159C15.1396 13.9621 15.1396 14.8582 14.5812 15.2044L11.2096 17.2945C10.6669 17.6309 10 17.1931 10 16.5003L10 12.32C10 11.6273 10.6669 11.1894 11.2096 11.5258L14.5812 13.6159Z" stroke="#1C274C" stroke-width="1.5"/> </g>
</svg>

<svg xmlns="http://www.w3.org/2000/svg" width="800" height="800" fill="none" viewBox="0 0 24 24"><g stroke="#1C274C" stroke-width="1.5"><path d="M19.562 7a2.132 2.132 0 0 0-2.1-2.5H6.538a2.132 2.132 0 0 0-2.1 2.5M17.5 4.5c.028-.26.043-.389.043-.496a2 2 0 0 0-1.787-1.993C15.65 2 15.52 2 15.26 2H8.74c-.26 0-.391 0-.497.011a2 2 0 0 0-1.787 1.993c0 .107.014.237.043.496"/><path stroke-linecap="round" d="M21.194 16.793c-.35 2.48-.525 3.721-1.422 4.464s-2.22.743-4.867.743h-5.81c-2.646 0-3.97 0-4.867-.743s-1.072-1.983-1.422-4.464l-.422-3c-.447-3.164-.67-4.745.278-5.77C3.61 7 5.298 7 8.672 7h6.656c3.374 0 5.062 0 6.01 1.024.749.809.767 1.966.521 3.976"/><path d="M14.581 13.616c.559.346.559 1.242 0 1.588l-3.371 2.09c-.543.337-1.21-.1-1.21-.794v-4.18c0-.693.667-1.13 1.21-.794z"/></g></svg>
